assets/img/samirpaul.svg

<svg xmlns="http://www.w3.org/2000/svg" style="margin:auto;background:0 0;display:block;shape-rendering:auto" width="224" height="32" preserveAspectRatio="xMidYMid"><style>@keyframes breath-e941c2ab-7b2e-4198-8c5f-cd4f60c66c60{0%{animation-timing-function:cubic-bezier(.9647,.2413,-.0705,.7911);transform:scale(.9099999999999999)}51%{animation-timing-function:cubic-bezier(.9226,.2631,-.0308,.7628);transform:scale(1.02994)}to{transform:scale(.9099999999999999)}}</style><g style="transform-origin:112px 16px;transform:scale(1)"><g style="transform:scale(.91);transform-origin:-96.25px -2.09809px;animation:.641026s linear -.376068s infinite normal forwards running breath-e941c2ab-7b2e-4198-8c5f-cd4f60c66c60"><path d="M20.98-6.88q0 1.46-.36 2.57-.37 1.11-1.03 1.92-.67.81-1.57 1.36-.91.55-1.98.87-1.07.33-2.27.47-1.19.14-2.43.14-1.62 0-3-.24-1.37-.24-2.58-.76-1.21-.53-2.33-1.36-1.12-.82-2.23-2.01l3.19-3.24q.44 1.08 1.2 2 .77.91 1.68 1.57.92.65 1.9 1.03.99.37 1.86.37 1.03 0 1.94-.15.91-.14 1.58-.49.67-.34 1.05-.91.38-.57.38-1.43 0-.66-.29-1.13-.3-.47-.78-.8-.47-.34-1.08-.57-.61-.24-1.24-.4-.64-.16-1.25-.3-.61-.13-1.07-.27-.93-.27-1.93-.57-1-.31-1.96-.7-.97-.39-1.84-.89-.87-.51-1.52-1.21-.66-.69-1.05-1.61-.39-.91-.39-2.1 0-1.42.35-2.52t.99-1.92q.64-.81 1.52-1.36.87-.56 1.92-.89 1.05-.34 2.23-.49 1.18-.15 2.41-.15 1.69 0 3.07.32 1.38.31 2.56.89 1.17.57 2.14 1.38.98.8 1.84 1.79l-3.19 3.23q-.37-1.12-1.04-2.03-.66-.91-1.47-1.55-.82-.65-1.71-1-.89-.36-1.72-.36-1.07 0-1.98.15-.91.15-1.55.49-.65.33-1.01.9-.36.57-.36 1.42 0 .67.26 1.14.27.47.71.8.45.32 1.01.53.57.22 1.17.37.6.16 1.18.28.59.11 1.07.25.94.27 1.97.57 1.03.29 2.03.69 1 .4 1.91.91.91.52 1.59 1.23.69.71 1.1 1.64.4.93.4 2.13" fill="#05a8ff" stroke-width="none" transform="translate(4.66 25.202)" style="fill:#05a8ff" class="path"/></g><g style="transform:scale(.91);transform-origin:-71.9138px .10191px;animation:.641026s linear -.32906s infinite normal forwards running breath-e941c2ab-7b2e-4198-8c5f-cd4f60c66c60"><path d="M46.27-10.77v.3q-.04 1.31-.28 2.72-.24 1.41-.68 2.81-.43 1.41-1.04 2.78Q43.66-.78 42.9.48q-.76 1.25-1.63 2.36-.88 1.1-1.85 1.94l-2.33-1.34q.55-.92 1-2.01.44-1.09.8-2.27.36-1.19.62-2.44t.43-2.49q.17-1.23.26-2.43.08-1.19.08-2.27 0-.84-.01-1.91 0-1.07-.12-2.18t-.38-2.17q-.27-1.05-.79-1.88-.53-.83-1.35-1.33-.82-.5-2.04-.5-1.07 0-1.85.37-.77.37-1.31.98-.54.62-.86 1.43-.32.82-.5 1.71-.18.9-.23 1.82-.06.91-.06 1.72v4.36h6.74v2.58h-6.74V0h-6.2v-11.44q0-2.45.78-4.56.78-2.11 2.21-3.66 1.43-1.56 3.44-2.44 2.01-.88 4.47-.88 1.68 0 3.14.47 1.46.48 2.66 1.31 1.2.84 2.15 1.99t1.58 2.51q.63 1.36.96 2.87.33 1.52.3 3.06" fill="#05a8ff" stroke-width="none" transform="translate(4.66 25.202)" style="fill:#ff2b21" class="path"/></g><g style="transform:scale(.91);transform-origin:-43.975px -2.04809px;animation:.641026s linear -.282051s infinite normal forwards running breath-e941c2ab-7b2e-4198-8c5f-cd4f60c66c60"><path d="m59.61 0-5.14-16.78L52.72 0h-3.83l3.83-22.5h5.67l5.27 17.17 5.32-17.17h5.68L77.84 0h-6.31l-1.86-16.34L65.28 0h-5.67" fill="#05a8ff" stroke-width="none" transform="translate(4.66 25.202)" style="fill:#ffcf00" class="path"/></g><g style="transform:scale(.91);transform-origin:-22.3px -2.04809px;animation:.641026s linear -.235043s infinite normal forwards running breath-e941c2ab-7b2e-4198-8c5f-cd4f60c66c60"><path d="M88.14-22.5V0h-6.2v-22.5h6.2" fill="#05a8ff" stroke-width="none" transform="translate(4.66 25.202)" style="fill:#1fff00" class="path"/></g><g style="transform:scale(.91);transform-origin:-4.02001px -2.04809px;animation:.641026s linear -.188034s infinite normal forwards running breath-e941c2ab-7b2e-4198-8c5f-cd4f60c66c60"><path d="M99.44-8.41V0h-6.21v-22.5h11.07q1.56 0 3.01.37 1.46.36 2.57 1.15 1.12.79 1.78 2.04.67 1.25.67 3.03 0 1.39-.59 2.62-.58 1.23-1.56 2.19-.98.96-2.24 1.59-1.27.63-2.63.84.61 1.03 1.28 1.95.66.92 1.34 1.73.68.8 1.35 1.48.67.68 1.28 1.24Q112-.95 113.41 0h-7.74q-.94-.89-1.78-2.14-.72-1.06-1.44-2.63-.73-1.57-1.12-3.64h-1.89zm6.59-7.5q0-2.26-1.1-3.32-1.1-1.07-3.3-1.07h-2.19v9.77h2.19q1.17 0 2-.45.84-.44 1.37-1.18.53-.75.78-1.72.25-.96.25-2.03" fill="#05a8ff" stroke-width="none" transform="translate(4.66 25.202)" style="fill:#ff06fb" class="path"/></g><g style="transform:scale(.91);transform-origin:28.135px -2.04809px;animation:.641026s linear -.141026s infinite normal forwards running breath-e941c2ab-7b2e-4198-8c5f-cd4f60c66c60"><path d="M131.59-8.41V0h-6.2v-22.5h12.16q1.58 0 3.02.42 1.45.42 2.56 1.28 1.1.85 1.77 2.14.66 1.28.66 3.02 0 1.09-.31 2.05-.31.96-.87 1.76-.55.8-1.3 1.44-.75.64-1.64 1.08-.89.43-1.89.67-.99.23-2 .23h-5.96zm7.69-7.23q0-2.17-1.1-3.41-1.1-1.25-3.32-1.25h-3.27v9.77h3.27q1.19 0 2.02-.38.84-.39 1.37-1.07.53-.69.78-1.62.25-.93.25-2.04" fill="#05a8ff" stroke-width="none" transform="translate(4.66 25.202)" style="fill:#05a8ff" class="path"/></g><g style="transform:scale(.91);transform-origin:52.0362px .10191px;animation:.641026s linear -.0940171s infinite normal forwards running breath-e941c2ab-7b2e-4198-8c5f-cd4f60c66c60"><path d="M170.22-10.77v.3q-.03 1.31-.27 2.72-.25 1.41-.68 2.81-.44 1.41-1.05 2.78-.61 1.38-1.37 2.64-.76 1.25-1.63 2.36-.88 1.1-1.84 1.94l-2.33-1.34q.54-.92.99-2.01.44-1.09.8-2.27.36-1.19.62-2.44t.43-2.49q.17-1.23.26-2.43.08-1.19.08-2.27v-1.91q-.01-1.07-.13-2.18-.12-1.11-.38-2.17-.27-1.05-.79-1.88-.52-.83-1.34-1.33-.82-.5-2.04-.5-1.08 0-1.85.37-.78.37-1.32.98-.54.62-.86 1.43-.32.82-.5 1.71-.18.9-.23 1.82-.06.91-.06 1.72v4.36h6.74v2.58h-6.74V0h-6.2v-11.44q0-2.45.78-4.56.78-2.11 2.21-3.66 1.43-1.56 3.44-2.44 2.01-.88 4.48-.88 1.67 0 3.13.47 1.46.48 2.66 1.31 1.21.84 2.15 1.99.95 1.15 1.58 2.51.63 1.36.96 2.87.33 1.52.3 3.06" fill="#05a8ff" stroke-width="none" transform="translate(4.66 25.202)" style="fill:#ff2b21" class="path"/></g><g style="transform:scale(.91);transform-origin:76.7037px -1.80809px;animation:.641026s linear -.0470085s infinite normal forwards running breath-e941c2ab-7b2e-4198-8c5f-cd4f60c66c60"><path d="M176.3-22.5h4.54q-.42 1.27-.73 2.62t-.52 2.7q-.2 1.35-.3 2.66-.1 1.32-.1 2.49 0 .86.01 1.93 0 1.07.12 2.18t.38 2.16q.27 1.06.79 1.88.53.83 1.35 1.33.82.5 2.04.5 1.07 0 1.85-.36.77-.37 1.31-1 .54-.62.86-1.43.32-.82.5-1.71t.23-1.8q.06-.92.06-1.74V-22.5h6.2v11.44q0 2.45-.78 4.56-.78 2.11-2.2 3.66-1.43 1.56-3.44 2.44-2.02.88-4.47.88-1.69 0-3.14-.47-1.45-.48-2.66-1.31-1.22-.84-2.16-1.99-.95-1.15-1.58-2.51-.63-1.36-.96-2.86-.33-1.51-.3-3.06v-.31q.02-1.25.25-2.59.24-1.33.64-2.68.39-1.34.96-2.66.56-1.32 1.25-2.54" fill="#05a8ff" stroke-width="none" transform="translate(4.66 25.202)" style="fill:#ffcf00" class="path"/></g><g style="transform:scale(.91);transform-origin:100.46px -2.04809px;animation:.641026s linear 0s infinite normal forwards running breath-e941c2ab-7b2e-4198-8c5f-cd4f60c66c60"><path d="M215.88-2.86V0h-16.16v-22.5h6.2v19.64h9.96" fill="#05a8ff" stroke-width="none" transform="translate(4.66 25.202)" style="fill:#1fff00" class="path"/></g></g></svg>

<?xml version="1.0" encoding="utf-8"?>
<svg xmlns="http://www.w3.org/2000/svg" style="margin: auto; background: none; display: block; shape-rendering: auto;" width="224" height="32" preserveAspectRatio="xMidYMid">
<style type="text/css">
  text {
    text-anchor: middle; font-size: 32px; opacity: 0;
  }
</style>
<g style="transform-origin:112px 16px;transform:scale(1)">
<g transform="translate(112,16)">
  <g transform="translate(0,0)"><g class="path" style="transform: scale(0.91); transform-origin: -96.25px -2.09809px; animation: 0.641026s linear -0.376068s infinite normal forwards running breath-e941c2ab-7b2e-4198-8c5f-cd4f60c66c60;"><path d="M20.98-6.88L20.98-6.88L20.98-6.88Q20.98-5.42 20.62-4.31L20.62-4.31L20.62-4.31Q20.25-3.20 19.59-2.39L19.59-2.39L19.59-2.39Q18.92-1.58 18.02-1.03L18.02-1.03L18.02-1.03Q17.11-0.48 16.04-0.16L16.04-0.16L16.04-0.16Q14.97 0.17 13.77 0.31L13.77 0.31L13.77 0.31Q12.58 0.45 11.34 0.45L11.34 0.45L11.34 0.45Q9.72 0.45 8.34 0.21L8.34 0.21L8.34 0.21Q6.97-0.03 5.76-0.55L5.76-0.55L5.76-0.55Q4.55-1.08 3.43-1.91L3.43-1.91L3.43-1.91Q2.31-2.73 1.20-3.92L1.20-3.92L4.39-7.16L4.39-7.16Q4.83-6.08 5.59-5.16L5.59-5.16L5.59-5.16Q6.36-4.25 7.27-3.59L7.27-3.59L7.27-3.59Q8.19-2.94 9.17-2.56L9.17-2.56L9.17-2.56Q10.16-2.19 11.03-2.19L11.03-2.19L11.03-2.19Q12.06-2.19 12.97-2.34L12.97-2.34L12.97-2.34Q13.88-2.48 14.55-2.83L14.55-2.83L14.55-2.83Q15.22-3.17 15.60-3.74L15.60-3.74L15.60-3.74Q15.98-4.31 15.98-5.17L15.98-5.17L15.98-5.17Q15.98-5.83 15.69-6.30L15.69-6.30L15.69-6.30Q15.39-6.77 14.91-7.10L14.91-7.10L14.91-7.10Q14.44-7.44 13.83-7.67L13.83-7.67L13.83-7.67Q13.22-7.91 12.59-8.07L12.59-8.07L12.59-8.07Q11.95-8.23 11.34-8.37L11.34-8.37L11.34-8.37Q10.73-8.50 10.27-8.64L10.27-8.64L10.27-8.64Q9.34-8.91 8.34-9.21L8.34-9.21L8.34-9.21Q7.34-9.52 6.38-9.91L6.38-9.91L6.38-9.91Q5.41-10.30 4.54-10.80L4.54-10.80L4.54-10.80Q3.67-11.31 3.02-12.01L3.02-12.01L3.02-12.01Q2.36-12.70 1.97-13.62L1.97-13.62L1.97-13.62Q1.58-14.53 1.58-15.72L1.58-15.72L1.58-15.72Q1.58-17.14 1.93-18.24L1.93-18.24L1.93-18.24Q2.28-19.34 2.92-20.16L2.92-20.16L2.92-20.16Q3.56-20.97 4.44-21.52L4.44-21.52L4.44-21.52Q5.31-22.08 6.36-22.41L6.36-22.41L6.36-22.41Q7.41-22.75 8.59-22.90L8.59-22.90L8.59-22.90Q9.77-23.05 11-23.05L11-23.05L11-23.05Q12.69-23.05 14.07-22.73L14.07-22.73L14.07-22.73Q15.45-22.42 16.63-21.84L16.63-21.84L16.63-21.84Q17.80-21.27 18.77-20.46L18.77-20.46L18.77-20.46Q19.75-19.66 20.61-18.67L20.61-18.67L17.42-15.44L17.42-15.44Q17.05-16.56 16.38-17.47L16.38-17.47L16.38-17.47Q15.72-18.38 14.91-19.02L14.91-19.02L14.91-19.02Q14.09-19.67 13.20-20.02L13.20-20.02L13.20-20.02Q12.31-20.38 11.48-20.38L11.48-20.38L11.48-20.38Q10.41-20.38 9.50-20.23L9.50-20.23L9.50-20.23Q8.59-20.08 7.95-19.74L7.95-19.74L7.95-19.74Q7.30-19.41 6.94-18.84L6.94-18.84L6.94-18.84Q6.58-18.27 6.58-17.42L6.58-17.42L6.58-17.42Q6.58-16.75 6.84-16.28L6.84-16.28L6.84-16.28Q7.11-15.81 7.55-15.48L7.55-15.48L7.55-15.48Q8-15.16 8.56-14.95L8.56-14.95L8.56-14.95Q9.13-14.73 9.73-14.58L9.73-14.58L9.73-14.58Q10.33-14.42 10.91-14.30L10.91-14.30L10.91-14.30Q11.50-14.19 11.98-14.05L11.98-14.05L11.98-14.05Q12.92-13.78 13.95-13.48L13.95-13.48L13.95-13.48Q14.98-13.19 15.98-12.79L15.98-12.79L15.98-12.79Q16.98-12.39 17.89-11.88L17.89-11.88L17.89-11.88Q18.80-11.36 19.48-10.65L19.48-10.65L19.48-10.65Q20.17-9.94 20.58-9.01L20.58-9.01L20.58-9.01Q20.98-8.08 20.98-6.88" fill="#05a8ff" stroke="none" stroke-width="none" transform="translate(-107.3400068283081,9.201910006205239)" style="fill: rgb(5, 168, 255);"></path></g><g class="path" style="transform: scale(0.91); transform-origin: -71.9138px 0.10191px; animation: 0.641026s linear -0.32906s infinite normal forwards running breath-e941c2ab-7b2e-4198-8c5f-cd4f60c66c60;"><path d="M46.27-10.77L46.27-10.77L46.27-10.47L46.27-10.47Q46.23-9.16 45.99-7.75L45.99-7.75L45.99-7.75Q45.75-6.34 45.31-4.94L45.31-4.94L45.31-4.94Q44.88-3.53 44.27-2.16L44.27-2.16L44.27-2.16Q43.66-0.78 42.90 0.48L42.90 0.48L42.90 0.48Q42.14 1.73 41.27 2.84L41.27 2.84L41.27 2.84Q40.39 3.94 39.42 4.78L39.42 4.78L37.09 3.44L37.09 3.44Q37.64 2.52 38.09 1.43L38.09 1.43L38.09 1.43Q38.53 0.34 38.89-0.84L38.89-0.84L38.89-0.84Q39.25-2.03 39.51-3.28L39.51-3.28L39.51-3.28Q39.77-4.53 39.94-5.77L39.94-5.77L39.94-5.77Q40.11-7 40.20-8.20L40.20-8.20L40.20-8.20Q40.28-9.39 40.28-10.47L40.28-10.47L40.28-10.47Q40.28-11.31 40.27-12.38L40.27-12.38L40.27-12.38Q40.27-13.45 40.15-14.56L40.15-14.56L40.15-14.56Q40.03-15.67 39.77-16.73L39.77-16.73L39.77-16.73Q39.50-17.78 38.98-18.61L38.98-18.61L38.98-18.61Q38.45-19.44 37.63-19.94L37.63-19.94L37.63-19.94Q36.81-20.44 35.59-20.44L35.59-20.44L35.59-20.44Q34.52-20.44 33.74-20.07L33.74-20.07L33.74-20.07Q32.97-19.70 32.43-19.09L32.43-19.09L32.43-19.09Q31.89-18.47 31.57-17.66L31.57-17.66L31.57-17.66Q31.25-16.84 31.07-15.95L31.07-15.95L31.07-15.95Q30.89-15.05 30.84-14.13L30.84-14.13L30.84-14.13Q30.78-13.22 30.78-12.41L30.78-12.41L30.78-8.05L37.52-8.05L37.52-5.47L30.78-5.47L30.78 0L24.58 0L24.58-11.44L24.58-11.44Q24.58-13.89 25.36-16L25.36-16L25.36-16Q26.14-18.11 27.57-19.66L27.57-19.66L27.57-19.66Q29-21.22 31.01-22.10L31.01-22.10L31.01-22.10Q33.02-22.98 35.48-22.98L35.48-22.98L35.48-22.98Q37.16-22.98 38.62-22.51L38.62-22.51L38.62-22.51Q40.08-22.03 41.28-21.20L41.28-21.20L41.28-21.20Q42.48-20.36 43.43-19.21L43.43-19.21L43.43-19.21Q44.38-18.06 45.01-16.70L45.01-16.70L45.01-16.70Q45.64-15.34 45.97-13.83L45.97-13.83L45.97-13.83Q46.30-12.31 46.27-10.77" fill="#05a8ff" stroke="none" stroke-width="none" transform="translate(-107.3400068283081,9.201910006205239)" style="fill: rgb(255, 43, 33);"></path></g><g class="path" style="transform: scale(0.91); transform-origin: -43.975px -2.04809px; animation: 0.641026s linear -0.282051s infinite normal forwards running breath-e941c2ab-7b2e-4198-8c5f-cd4f60c66c60;"><path d="M59.61 0L54.47-16.78L52.72 0L48.89 0L52.72-22.50L58.39-22.50L63.66-5.33L68.98-22.50L74.66-22.50L77.84 0L71.53 0L69.67-16.34L65.28 0L59.61 0" fill="#05a8ff" stroke="none" stroke-width="none" transform="translate(-107.3400068283081,9.201910006205239)" style="fill: rgb(255, 207, 0);"></path></g><g class="path" style="transform: scale(0.91); transform-origin: -22.3px -2.04809px; animation: 0.641026s linear -0.235043s infinite normal forwards running breath-e941c2ab-7b2e-4198-8c5f-cd4f60c66c60;"><path d="M88.14-22.50L88.14 0L81.94 0L81.94-22.50L88.14-22.50" fill="#05a8ff" stroke="none" stroke-width="none" transform="translate(-107.3400068283081,9.201910006205239)" style="fill: rgb(31, 255, 0);"></path></g><g class="path" style="transform: scale(0.91); transform-origin: -4.02001px -2.04809px; animation: 0.641026s linear -0.188034s infinite normal forwards running breath-e941c2ab-7b2e-4198-8c5f-cd4f60c66c60;"><path d="M99.44-8.41L99.44 0L93.23 0L93.23-22.50L104.30-22.50L104.30-22.50Q105.86-22.50 107.31-22.13L107.31-22.13L107.31-22.13Q108.77-21.77 109.88-20.98L109.88-20.98L109.88-20.98Q111-20.19 111.66-18.94L111.66-18.94L111.66-18.94Q112.33-17.69 112.33-15.91L112.33-15.91L112.33-15.91Q112.33-14.52 111.74-13.29L111.74-13.29L111.74-13.29Q111.16-12.06 110.18-11.10L110.18-11.10L110.18-11.10Q109.20-10.14 107.94-9.51L107.94-9.51L107.94-9.51Q106.67-8.88 105.31-8.67L105.31-8.67L105.31-8.67Q105.92-7.64 106.59-6.72L106.59-6.72L106.59-6.72Q107.25-5.80 107.93-4.99L107.93-4.99L107.93-4.99Q108.61-4.19 109.28-3.51L109.28-3.51L109.28-3.51Q109.95-2.83 110.56-2.27L110.56-2.27L110.56-2.27Q112-0.95 113.41 0L113.41 0L105.67 0L105.67 0Q104.73-0.89 103.89-2.14L103.89-2.14L103.89-2.14Q103.17-3.20 102.45-4.77L102.45-4.77L102.45-4.77Q101.72-6.34 101.33-8.41L101.33-8.41L99.44-8.41zM106.03-15.91L106.03-15.91L106.03-15.91Q106.03-18.17 104.93-19.23L104.93-19.23L104.93-19.23Q103.83-20.30 101.63-20.30L101.63-20.30L99.44-20.30L99.44-10.53L101.63-10.53L101.63-10.53Q102.80-10.53 103.63-10.98L103.63-10.98L103.63-10.98Q104.47-11.42 105-12.16L105-12.16L105-12.16Q105.53-12.91 105.78-13.88L105.78-13.88L105.78-13.88Q106.03-14.84 106.03-15.91" fill="#05a8ff" stroke="none" stroke-width="none" transform="translate(-107.3400068283081,9.201910006205239)" style="fill: rgb(255, 6, 251);"></path></g><g class="path" style="transform: scale(0.91); transform-origin: 28.135px -2.04809px; animation: 0.641026s linear -0.141026s infinite normal forwards running breath-e941c2ab-7b2e-4198-8c5f-cd4f60c66c60;"><path d="M131.59-8.41L131.59 0L125.39 0L125.39-22.50L137.55-22.50L137.55-22.50Q139.13-22.50 140.57-22.08L140.57-22.08L140.57-22.08Q142.02-21.66 143.13-20.80L143.13-20.80L143.13-20.80Q144.23-19.95 144.90-18.66L144.90-18.66L144.90-18.66Q145.56-17.38 145.56-15.64L145.56-15.64L145.56-15.64Q145.56-14.55 145.25-13.59L145.25-13.59L145.25-13.59Q144.94-12.63 144.38-11.83L144.38-11.83L144.38-11.83Q143.83-11.03 143.08-10.39L143.08-10.39L143.08-10.39Q142.33-9.75 141.44-9.31L141.44-9.31L141.44-9.31Q140.55-8.88 139.55-8.64L139.55-8.64L139.55-8.64Q138.56-8.41 137.55-8.41L137.55-8.41L131.59-8.41zM139.28-15.64L139.28-15.64L139.28-15.64Q139.28-17.81 138.18-19.05L138.18-19.05L138.18-19.05Q137.08-20.30 134.86-20.30L134.86-20.30L131.59-20.30L131.59-10.53L134.86-10.53L134.86-10.53Q136.05-10.53 136.88-10.91L136.88-10.91L136.88-10.91Q137.72-11.30 138.25-11.98L138.25-11.98L138.25-11.98Q138.78-12.67 139.03-13.60L139.03-13.60L139.03-13.60Q139.28-14.53 139.28-15.64" fill="#05a8ff" stroke="none" stroke-width="none" transform="translate(-107.3400068283081,9.201910006205239)" style="fill: rgb(5, 168, 255);"></path></g><g class="path" style="transform: scale(0.91); transform-origin: 52.0362px 0.10191px; animation: 0.641026s linear -0.0940171s infinite normal forwards running breath-e941c2ab-7b2e-4198-8c5f-cd4f60c66c60;"><path d="M170.22-10.77L170.22-10.77L170.22-10.47L170.22-10.47Q170.19-9.16 169.95-7.75L169.95-7.75L169.95-7.75Q169.70-6.34 169.27-4.94L169.27-4.94L169.27-4.94Q168.83-3.53 168.22-2.16L168.22-2.16L168.22-2.16Q167.61-0.78 166.85 0.48L166.85 0.48L166.85 0.48Q166.09 1.73 165.22 2.84L165.22 2.84L165.22 2.84Q164.34 3.94 163.38 4.78L163.38 4.78L161.05 3.44L161.05 3.44Q161.59 2.52 162.04 1.43L162.04 1.43L162.04 1.43Q162.48 0.34 162.84-0.84L162.84-0.84L162.84-0.84Q163.20-2.03 163.46-3.28L163.46-3.28L163.46-3.28Q163.72-4.53 163.89-5.77L163.89-5.77L163.89-5.77Q164.06-7 164.15-8.20L164.15-8.20L164.15-8.20Q164.23-9.39 164.23-10.47L164.23-10.47L164.23-10.47Q164.23-11.31 164.23-12.38L164.23-12.38L164.23-12.38Q164.22-13.45 164.10-14.56L164.10-14.56L164.10-14.56Q163.98-15.67 163.72-16.73L163.72-16.73L163.72-16.73Q163.45-17.78 162.93-18.61L162.93-18.61L162.93-18.61Q162.41-19.44 161.59-19.94L161.59-19.94L161.59-19.94Q160.77-20.44 159.55-20.44L159.55-20.44L159.55-20.44Q158.47-20.44 157.70-20.07L157.70-20.07L157.70-20.07Q156.92-19.70 156.38-19.09L156.38-19.09L156.38-19.09Q155.84-18.47 155.52-17.66L155.52-17.66L155.52-17.66Q155.20-16.84 155.02-15.95L155.02-15.95L155.02-15.95Q154.84-15.05 154.79-14.13L154.79-14.13L154.79-14.13Q154.73-13.22 154.73-12.41L154.73-12.41L154.73-8.05L161.47-8.05L161.47-5.47L154.73-5.47L154.73 0L148.53 0L148.53-11.44L148.53-11.44Q148.53-13.89 149.31-16L149.31-16L149.31-16Q150.09-18.11 151.52-19.66L151.52-19.66L151.52-19.66Q152.95-21.22 154.96-22.10L154.96-22.10L154.96-22.10Q156.97-22.98 159.44-22.98L159.44-22.98L159.44-22.98Q161.11-22.98 162.57-22.51L162.57-22.51L162.57-22.51Q164.03-22.03 165.23-21.20L165.23-21.20L165.23-21.20Q166.44-20.36 167.38-19.21L167.38-19.21L167.38-19.21Q168.33-18.06 168.96-16.70L168.96-16.70L168.96-16.70Q169.59-15.34 169.92-13.83L169.92-13.83L169.92-13.83Q170.25-12.31 170.22-10.77" fill="#05a8ff" stroke="none" stroke-width="none" transform="translate(-107.3400068283081,9.201910006205239)" style="fill: rgb(255, 43, 33);"></path></g><g class="path" style="transform: scale(0.91); transform-origin: 76.7037px -1.80809px; animation: 0.641026s linear -0.0470085s infinite normal forwards running breath-e941c2ab-7b2e-4198-8c5f-cd4f60c66c60;"><path d="M176.30-22.50L180.84-22.50L180.84-22.50Q180.42-21.23 180.11-19.88L180.11-19.88L180.11-19.88Q179.80-18.53 179.59-17.18L179.59-17.18L179.59-17.18Q179.39-15.83 179.29-14.52L179.29-14.52L179.29-14.52Q179.19-13.20 179.19-12.03L179.19-12.03L179.19-12.03Q179.19-11.17 179.20-10.10L179.20-10.10L179.20-10.10Q179.20-9.03 179.32-7.92L179.32-7.92L179.32-7.92Q179.44-6.81 179.70-5.76L179.70-5.76L179.70-5.76Q179.97-4.70 180.49-3.88L180.49-3.88L180.49-3.88Q181.02-3.05 181.84-2.55L181.84-2.55L181.84-2.55Q182.66-2.05 183.88-2.05L183.88-2.05L183.88-2.05Q184.95-2.05 185.73-2.41L185.73-2.41L185.73-2.41Q186.50-2.78 187.04-3.41L187.04-3.41L187.04-3.41Q187.58-4.03 187.90-4.84L187.90-4.84L187.90-4.84Q188.22-5.66 188.40-6.55L188.40-6.55L188.40-6.55Q188.58-7.44 188.63-8.35L188.63-8.35L188.63-8.35Q188.69-9.27 188.69-10.09L188.69-10.09L188.69-22.50L194.89-22.50L194.89-11.06L194.89-11.06Q194.89-8.61 194.11-6.50L194.11-6.50L194.11-6.50Q193.33-4.39 191.91-2.84L191.91-2.84L191.91-2.84Q190.48-1.28 188.47-0.40L188.47-0.40L188.47-0.40Q186.45 0.48 184 0.48L184 0.48L184 0.48Q182.31 0.48 180.86 0.01L180.86 0.01L180.86 0.01Q179.41-0.47 178.20-1.30L178.20-1.30L178.20-1.30Q176.98-2.14 176.04-3.29L176.04-3.29L176.04-3.29Q175.09-4.44 174.46-5.80L174.46-5.80L174.46-5.80Q173.83-7.16 173.50-8.66L173.50-8.66L173.50-8.66Q173.17-10.17 173.20-11.72L173.20-11.72L173.20-12.03L173.20-12.03Q173.22-13.28 173.45-14.62L173.45-14.62L173.45-14.62Q173.69-15.95 174.09-17.30L174.09-17.30L174.09-17.30Q174.48-18.64 175.05-19.96L175.05-19.96L175.05-19.96Q175.61-21.28 176.30-22.50L176.30-22.50" fill="#05a8ff" stroke="none" stroke-width="none" transform="translate(-107.3400068283081,9.201910006205239)" style="fill: rgb(255, 207, 0);"></path></g><g class="path" style="transform: scale(0.91); transform-origin: 100.46px -2.04809px; animation: 0.641026s linear 0s infinite normal forwards running breath-e941c2ab-7b2e-4198-8c5f-cd4f60c66c60;"><path d="M215.88-2.86L215.88 0L199.72 0L199.72-22.50L205.92-22.50L205.92-2.86L215.88-2.86" fill="#05a8ff" stroke="none" stroke-width="none" transform="translate(-107.3400068283081,9.201910006205239)" style="fill: rgb(31, 255, 0);"></path></g></g>
</g>
</g>
<style id="breath-e941c2ab-7b2e-4198-8c5f-cd4f60c66c60" data-anikit="">@keyframes breath-e941c2ab-7b2e-4198-8c5f-cd4f60c66c60
{
  0% {
    animation-timing-function: cubic-bezier(0.9647,0.2413,-0.0705,0.7911);
    transform: scale(0.9099999999999999);
  }
  51% {
    animation-timing-function: cubic-bezier(0.9226,0.2631,-0.0308,0.7628);
    transform: scale(1.02994);
  }
  100% {
    transform: scale(0.9099999999999999);
  }
}</style></svg>
